X: 55
M:C|
L:1/8
K:A
((3uEFG)|A>cB>A A>ce>c|d>ef>g a>fe>c|\
f>ed>f e>cA>c|B>AG>B A2:|
K:E
|:(uG"4"A)|(cB)B>B kB2 (cd)|"4"e>d"0"e>f g2(fg)|\
a>gf>a g>f"0"e>g|f>"4"ed>c B>"0"AG>"4"A|
(cB)B>B kB2(cd)|"4"e>d"0"e>f g2(fg)|\
a>gf>a g>fe>g|f>ed>f e2:|


